calendar-sync-outline.svg

<svg fill="currentColor" viewBox="0 0 24 24"><path d="M18 11v1.5c3.19 0 5.09 3.55 3.33 6.21l-1.09-1.09C21.06 15.96 19.85 14 18 14v1.5l-2.25-2.25zm0 11v-1.5c-3.19 0-5.09-3.55-3.33-6.21l1.09 1.09C14.94 17.04 16.15 19 18 19v-1.5l2.25 2.25zm1-19h-1V1h-2v2H8V1H6v2H5a2 2 0 0 0-2 2v14a2 2 0 0 0 2 2h9a5.9 5.9 0 0 1-1.5-2H5V9h14v1.59c.71.11 1.39.35 2 .72V5a2 2 0 0 0-2-2m0 4H5V5h14"/></svg>

<svg  viewBox="0 0 24 24" fill="currentColor"><path  d="M18,11V12.5C21.19,12.5 23.09,16.05 21.33,18.71L20.24,17.62C21.06,15.96 19.85,14 18,14V15.5L15.75,13.25L18,11M18,22V20.5C14.81,20.5 12.91,16.95 14.67,14.29L15.76,15.38C14.94,17.04 16.15,19 18,19V17.5L20.25,19.75L18,22M19,3H18V1H16V3H8V1H6V3H5A2,2 0 0,0 3,5V19A2,2 0 0,0 5,21H14C13.36,20.45 12.86,19.77 12.5,19H5V9H19V10.59C19.71,10.7 20.39,10.94 21,11.31V5A2,2 0 0,0 19,3M19,7H5V5H19"/></svg>
